X:1
T:Title
%%score ( 1 2 ) { 3 | 4 }
L:1/8
Q:1/4=103
M:4/4
K:D
V:1 treble nm="Grand Piano, Soprano"
V:2 treble 
V:3 bass nm="Choir Pad, Softly the Night Is Sleeping"
V:4 bass 
V:1
 [FA]2 [=F^G]>[^FA] [Dd]2 [FA]2 | [DF]3 [EG] [FA]3 [DF] | [CE]2 [CE][DF] [EG]2 [CA]2 | [DF]6 z2 | %4
w: By~Massah~Miksch~Warner * * * *||||
 [FA]2 [=F^G]>[^FA] [Dd]2 [FA]2 | [DF]3 [EG] [FA]3 [=FB] | [Ec]2 [DB][CA] [EB]2 A^G | [EA]6 A2 | %8
w: ||||
 [Fd]3 A FDFG | A3 B A4 | [GB]2 [Gd]>[Gd] [Gc]2 [GB]2 | [FA]6 z2 | [FA]2 [=FG]>[^FA] [Dd]2 [FA]2 | %13
w: |||||
 [DF]3 [EG] [FA]4 | [Fd]2 [FA]>[DF] AGFE | D6 z2 | [DF]2 [A,D]>[DF] [FA]4 | [FA]2 [DF]>[DA] [Fd]4 | %18
w: |||||
 [Fd]2 [Af]>[Fd] [DA]2 [DF][EG] | [FA]2 [GB]2 [FA]4 | [Fd]2 [Gd]>[Gd] [Fd]3 [DA] | AGFE D4- | %22
w: ||||
 D4 z4 |] %23
w: |
V:2
 x8 | x8 | x8 | x8 | x8 | x8 | z4 z2 E2 | x8 | x8 | x8 | x8 | x8 | x8 | x8 | z4 E2 C2 | x8 | x8 | %17
 x8 | x8 | x8 | x8 | E2 C2 z4 | x8 |] %23
V:3
 D2 B,>A, F,2 A,2 | A,4 D3 A, | A,2 A,2 A,2 A,2 | A,6 z2 | D2 B,>A, F,2 A,2 | A,4 D3 A, | %6
 A,2 ^G,A,[K:treble] D2 CB, | C6 A,2 | A,3 A, F,D,F,G, | A,3 B, A,4 | D2 D>D D2 D2 | D6 z2 | %12
 D2 B,>A, F,2 A,2 | A,4[K:treble] D4 | F2 D>D C2[K:bass] A,G, | F,6 z2 | A,2 F,>A, D4 | %17
 D2 A,>F, A,4 | A,2 D>A, F,2 A,2 | D2 D2 D4 | A,2 B,>[K:bass]B, A,3 D | C2 A,G, F,4- | F,4 z4 |] %23
V:4
 D,2 D,>D, D,2 D,2 | D,4 D,3 D, | A,,2 A,,2 C,2 A,,2 | D,6 z2 | D,2 D,>D, D,2 D,2 | D,4 D,3 D, | %6
 E,2 E,2 E,2 E,2 | A,,6 z2 | D,4 z4 | z8 | G,2 B,>B, A,2 G,2 | D,6 z2 | D,2 D,>D, D,2 D,2 | %13
 D,4 D,4 | A,,2 A,,>A,, A,,2 A,,2 | D,6 z2 | D,2 D,>D, D,4 | D,2 D,>D, D,4 | D,2 D,>D, D,2 D,2 | %19
 D,2 G,2 D,4 | D,2 G,>G, D,3 F, | A,2 A,,2 D,4- | D,4 z4 |] %23

